FINK
CUT[EI DU LIEBER AUGUSTIN]
REG[Europa, Mitteleuropa, Deutschland]
KEY[F0181  08  G 3/4]
MEL[  5_.654  3_1_1_
    2_-5_-5_  3_1_1_
    5_.654  3_1_1_
    2_-5_-5_  1_0__
    5_.654  3_1_1_
    2_-5_-5_  3_1_1_
    5_.654  3_1_1_
    2_-5_-5_  1_0__
    2_-5_-5_  13531_
    2_.-5-5-5  13531_
    5_.654  3_1_1_
    2_-5_-5_  1_0__
    2_-5_-5_  13531_
    2_.-5-5-5  13531_
    5_.654  3_1_1_
    2_-5_-5_  1_0__ //] >>
FCT[Scherz - Lied, Tanz - Reim]
